ui/StatusQ/src/assets/img/icons/communities/menu/ban.svg

<svg fill="none" height="16" viewBox="0 0 16 16" width="16" xmlns="http://www.w3.org/2000/svg"><path clip-rule="evenodd" d="m8.00004 14.6668c-3.6819 0-6.66667-2.9847-6.66667-6.66664 0-3.6819 2.98477-6.66666 6.66667-6.66666 3.68186 0 6.66666 2.98476 6.66666 6.66666 0 3.68194-2.9848 6.66664-6.66666 6.66664zm-4.08759-3.2862c-.13833.1384-.36627.1288-.4821-.0288-.68962-.9387-1.09698-2.09759-1.09698-3.35164 0-3.12961 2.53706-5.66666 5.66667-5.66666 1.25405 0 2.41296.40736 3.35166 1.09697.1576.11583.1672.34377.0288.4821zm.70711.7072c-.13834.1383-.12879.3662.02887.4821.93865.6896 2.09756 1.0969 3.35161 1.0969 3.12966 0 5.66666-2.537 5.66666-5.66664 0-1.25405-.4074-2.41296-1.097-3.35161-.1158-.15766-.3437-.1672-.4821-.02887z" fill="#ff2d55" fill-rule="evenodd"/></svg>

<svg width="16" height="16" viewBox="0 0 16 16" fill="none" xmlns="http://www.w3.org/2000/svg">
<path fill-rule="evenodd" clip-rule="evenodd" d="M8.00004 14.6668C4.31814 14.6668 1.33337 11.6821 1.33337 8.00016C1.33337 4.31826 4.31814 1.3335 8.00004 1.3335C11.6819 1.3335 14.6667 4.31826 14.6667 8.00016C14.6667 11.6821 11.6819 14.6668 8.00004 14.6668ZM3.91245 11.3806C3.77412 11.519 3.54618 11.5094 3.43035 11.3518C2.74073 10.4131 2.33337 9.25421 2.33337 8.00016C2.33337 4.87055 4.87043 2.3335 8.00004 2.3335C9.25409 2.3335 10.413 2.74086 11.3517 3.43047C11.5093 3.5463 11.5189 3.77424 11.3805 3.91257L3.91245 11.3806ZM4.61956 12.0878C4.48122 12.2261 4.49077 12.454 4.64843 12.5699C5.58708 13.2595 6.74599 13.6668 8.00004 13.6668C11.1297 13.6668 13.6667 11.1298 13.6667 8.00016C13.6667 6.74611 13.2593 5.5872 12.5697 4.64855C12.4539 4.49089 12.226 4.48135 12.0876 4.61968L4.61956 12.0878Z" fill="#FF2D55"/>
</svg>
